Newaita/actions/22/tools-media-optical-burn-image.svg

<svg height="22" viewBox="0 0 22 22" width="22" xmlns="http://www.w3.org/2000/svg"><path d="m10.914062 1.992188c-5.039062 0-9.09375 4.054687-9.09375 9.09375 0 5.039062 4.054688 9.097656 9.09375 9.097656v-1.820313c-4.03125 0-7.277343-3.246093-7.277343-7.277343s3.246093-7.277344 7.277343-7.277344 7.277344 3.246094 7.277344 7.277344h1.820313c0-5.039063-4.058594-9.09375-9.097657-9.09375zm0 0" fill="#424242"/><path d="m10.914062 8.359375c-1.511718 0-2.726562 1.214844-2.726562 2.726563 0 1.511718 1.214844 2.730468 2.726562 2.730468v-.910156c-1.007812 0-1.816406-.8125-1.816406-1.820312 0-1.007813.808594-1.816407 1.816406-1.816407 1.007813 0 1.820313.808594 1.820313 1.816407h.910156c0-1.511719-1.21875-2.726563-2.730469-2.726563zm0 0" fill="#424242"/><path d="m10.914062 5.628906c-3.023437 0-5.457031 2.433594-5.457031 5.457032h.910157c0-2.519532 2.027343-4.546876 4.546874-4.546876zm0 0" fill="#f44336"/><path d="m13.644531 12.90625c-.503906 0-.910156.40625-.910156.910156v5.457032c0 .503906.40625.910156.910156.910156h5.457031c.503907 0 .910157-.40625.910157-.910156v-5.457032c0-.503906-.40625-.910156-.910157-.910156zm.453125.910156h4.550782c.25 0 .453124.203125.453124.453125v4.550781c0 .25-.203124.453126-.453124.453126h-4.550782c-.25 0-.453125-.203126-.453125-.453126v-4.550781c0-.25.203125-.453125.453125-.453125zm0 0" fill="#424242"/></svg>

<?xml version="1.0" encoding="UTF-8"?>
<svg xmlns="http://www.w3.org/2000/svg" xmlns:xlink="http://www.w3.org/1999/xlink" width="22px" height="22px" viewBox="0 0 22 22" version="1.1">
<g id="surface1">
<path style=" stroke:none;fill-rule:nonzero;fill:rgb(25.882354%,25.882354%,25.882354%);fill-opacity:1;" d="M 10.914062 1.992188 C 5.875 1.992188 1.820312 6.046875 1.820312 11.085938 C 1.820312 16.125 5.875 20.183594 10.914062 20.183594 L 10.914062 18.363281 C 6.882812 18.363281 3.636719 15.117188 3.636719 11.085938 C 3.636719 7.054688 6.882812 3.808594 10.914062 3.808594 C 14.945312 3.808594 18.191406 7.054688 18.191406 11.085938 L 20.011719 11.085938 C 20.011719 6.046875 15.953125 1.992188 10.914062 1.992188 Z M 10.914062 1.992188 "/>
<path style=" stroke:none;fill-rule:nonzero;fill:rgb(25.882354%,25.882354%,25.882354%);fill-opacity:1;" d="M 10.914062 8.359375 C 9.402344 8.359375 8.1875 9.574219 8.1875 11.085938 C 8.1875 12.597656 9.402344 13.816406 10.914062 13.816406 L 10.914062 12.90625 C 9.90625 12.90625 9.097656 12.09375 9.097656 11.085938 C 9.097656 10.078125 9.90625 9.269531 10.914062 9.269531 C 11.921875 9.269531 12.734375 10.078125 12.734375 11.085938 L 13.644531 11.085938 C 13.644531 9.574219 12.425781 8.359375 10.914062 8.359375 Z M 10.914062 8.359375 "/>
<path style=" stroke:none;fill-rule:nonzero;fill:rgb(95.686275%,26.274511%,21.176471%);fill-opacity:1;" d="M 10.914062 5.628906 C 7.890625 5.628906 5.457031 8.0625 5.457031 11.085938 L 6.367188 11.085938 C 6.367188 8.566406 8.394531 6.539062 10.914062 6.539062 Z M 10.914062 5.628906 "/>
<path style=" stroke:none;fill-rule:nonzero;fill:rgb(25.882354%,25.882354%,25.882354%);fill-opacity:1;" d="M 13.644531 12.90625 C 13.140625 12.90625 12.734375 13.3125 12.734375 13.816406 L 12.734375 19.273438 C 12.734375 19.777344 13.140625 20.183594 13.644531 20.183594 L 19.101562 20.183594 C 19.605469 20.183594 20.011719 19.777344 20.011719 19.273438 L 20.011719 13.816406 C 20.011719 13.3125 19.605469 12.90625 19.101562 12.90625 Z M 14.097656 13.816406 L 18.648438 13.816406 C 18.898438 13.816406 19.101562 14.019531 19.101562 14.269531 L 19.101562 18.820312 C 19.101562 19.070312 18.898438 19.273438 18.648438 19.273438 L 14.097656 19.273438 C 13.847656 19.273438 13.644531 19.070312 13.644531 18.820312 L 13.644531 14.269531 C 13.644531 14.019531 13.847656 13.816406 14.097656 13.816406 Z M 14.097656 13.816406 "/>
</g>
</svg>
